svg/paper_roll.svg

<svg xmlns="http://www.w3.org/2000/svg" viewBox="0 0 24 24"><path d="M9 3C5.69 3 3.14 5.69 3 9v12h9v-7.54c1.1.99 2.5 1.54 4 1.54 3.31 0 6-2.69 6-6s-2.69-6-6-6zm7 2c2.21 0 4 1.79 4 4s-1.79 4-4 4-4-1.79-4-4 1.79-4 4-4m0 2.25c-.97 0-1.75.78-1.75 1.75s.78 1.75 1.75 1.75 1.75-.78 1.75-1.75-.78-1.75-1.75-1.75M4 12h1v1H4zm2 0h1v1H6zm2 0h1v1H8zm2 0h1v1h-1z"/></svg>

<?xml version="1.0" encoding="UTF-8"?><!DOCTYPE svg PUBLIC "-//W3C//DTD SVG 1.1//EN" "http://www.w3.org/Graphics/SVG/1.1/DTD/svg11.dtd"><svg xmlns="http://www.w3.org/2000/svg" xmlns:xlink="http://www.w3.org/1999/xlink" version="1.1" id="mdi-paper-roll" width="24" height="24" viewBox="0 0 24 24"><path d="M9 3C5.69 3 3.14 5.69 3 9V21H12V13.46C13.1 14.45 14.5 15 16 15C19.31 15 22 12.31 22 9C22 5.69 19.31 3 16 3H9M16 5C18.21 5 20 6.79 20 9C20 11.21 18.21 13 16 13C13.79 13 12 11.21 12 9C12 6.79 13.79 5 16 5M16 7.25C15.03 7.25 14.25 8.03 14.25 9C14.25 9.97 15.03 10.75 16 10.75C16.97 10.75 17.75 9.97 17.75 9C17.75 8.03 16.97 7.25 16 7.25M4 12H5V13H4V12M6 12H7V13H6V12M8 12H9V13H8V12M10 12H11V13H10V12Z" /></svg>
